svgs/sharp-regular/chess-pawn.svg

<svg xmlns="http://www.w3.org/2000/svg" viewBox="0 0 320 512"><!--! Font Awesome Pro 6.6.0 by @fontawesome - https://fontawesome.com License - https://fontawesome.com/license (Commercial License) Copyright 2024 Fonticons, Inc. --><path d="M232 152A72 72 0 1 0 88 152a72 72 0 1 0 144 0zm24 120l-12.6 0 10.7 80-48.4 0L195 272l-35 0-35 0-10.7 80-48.4 0 10.7-80L64 272l-24 0 0-48 24 0c-15.1-20.1-24-45-24-72C40 85.7 93.7 32 160 32s120 53.7 120 120c0 27-8.9 51.9-24 72l24 0 0 48-24 0zM69.2 432L52.7 464l214.7 0-16.6-32L69.2 432zM320 464l0 48-48 0L48 512 0 512l0-48 0-2.7L40 384l240 0 40 77.3 0 2.7z"/></svg>

<svg xmlns="http://www.w3.org/2000/svg" viewBox="0 0 320 512"><!--! Font Awesome Pro 6.4.0 by @fontawesome - https://fontawesome.com License - https://fontawesome.com/license (Commercial License) Copyright 2023 Fonticons, Inc. --><path d="M232 152A72 72 0 1 0 88 152a72 72 0 1 0 144 0zm24 120H243.4l10.7 80H205.7L195 272H160 125l-10.7 80H65.9l10.7-80H64 40V224H64c-15.1-20.1-24-45-24-72C40 85.7 93.7 32 160 32s120 53.7 120 120c0 27-8.9 51.9-24 72h24v48H256zM69.2 432L52.7 464H267.3l-16.6-32H69.2zM320 464v48H272 48 0V464v-2.7L40 384H280l40 77.3V464z"/></svg>
